X:1
T:Eternity, 77.75
T:Eternity, 77.75
T:Samuel Sebastian Wesley (1810-1876)
T:Public Domain Courtesy of the Cyber Hymnal™
C:Samuel Sebastian Wesley (1810-1876)
Z:Public Domain
Z:Courtesy of the Cyber Hymnal™
%%score ( 1 2 ) ( 3 4 )
L:1/8
M:3/4
K:Eb
V:1 treble 
V:2 treble 
V:3 bass 
V:4 bass 
V:1
 [EB]4 [Cc]2 | [Fc]4 [FB]2 | [Ee]4 [EA]2 | (A4 G2) | [CF]4 E2 | [DA]4 [EG]2 | c4 [CE]2 | (E4 D2) | %8
 [B,G]4 [DF]2 | E4 [Ee]2 | [Gd]4 [Ac]2 | [EB]6 | E4 [EA]2 | [EG]4 [DF]2 | E6 |] %15
V:2
 x6 | x6 | x6 | E6 | x4 E2 | x6 | (G2 F2) x2 | B,6 | x6 | E4 x2 | x6 | x6 | E4 x2 | x6 | E6 |] %15
V:3
 [E,G,]4 [E,G,]2 | [D,F,]4 [D,B,]2 | (B,2 A,2) [C,E]2 | [B,,B,]6 | [A,C]4 [G,B,]2 | %5
 [F,B,]4 [E,B,]2 | (B,2 A,2) [=A,,G,]2 | (G,4 F,2) | [E,G,]4 [B,,A,]2 | [C,G,]4 C2 | %10
 [B,E]4 [A,E]2 | [G,B,]6 | [C,G,]4 [A,,C]2 | [B,,B,]4 [B,,A,]2 | [E,G,]6 |] %15
V:4
 x6 | x6 | C,4 x2 | x6 | x6 | x6 | =A,,4 x2 | B,,6 | x6 | x4 C2 | x6 | x6 | x6 | x6 | x6 |] %15

